communes/4095.svg

<?xml version="1.0" encoding="UTF-8" standalone="no"?>
<!-- Created with Inkscape (http://www.inkscape.org/) -->
<svg
   xmlns:dc="http://purl.org/dc/elements/1.1/"
   xmlns:cc="http://web.resource.org/cc/"
   xmlns:rdf="http://www.w3.org/1999/02/22-rdf-syntax-ns#"
   xmlns:svg="http://www.w3.org/2000/svg"
   xmlns="http://www.w3.org/2000/svg"
   xmlns:sodipodi="http://sodipodi.sourceforge.net/DTD/sodipodi-0.dtd"
   xmlns:inkscape="http://www.inkscape.org/namespaces/inkscape"
   id="svg2"
   sodipodi:version="0.32"
   inkscape:version="0.44"
   width="360"
   height="400"
   version="1.0"
   sodipodi:docbase="D:\wiki_svg"
   sodipodi:docname="Brugg-blason.png.svg">
  <metadata
     id="metadata7">
    <rdf:RDF>
      <cc:Work
         rdf:about="">
        <dc:format>image/svg+xml</dc:format>
        <dc:type
           rdf:resource="http://purl.org/dc/dcmitype/StillImage" />
      </cc:Work>
    </rdf:RDF>
  </metadata>
  <defs
     id="defs5" />
  <sodipodi:namedview
     inkscape:window-height="664"
     inkscape:window-width="853"
     inkscape:pageshadow="2"
     inkscape:pageopacity="0.0"
     guidetolerance="4.1"
     gridtolerance="10.0"
     objecttolerance="10.0"
     borderopacity="1.0"
     bordercolor="#666666"
     pagecolor="#ffffff"
     id="base"
     borderlayer="true"
     inkscape:showpageshadow="false"
     height="400px"
     width="360px"
     showguides="false"
     inkscape:guide-bbox="true"
     inkscape:guide-points="true"
     inkscape:zoom="0.70710678"
     inkscape:cx="12.444812"
     inkscape:cy="214.73421"
     inkscape:window-x="6"
     inkscape:window-y="71"
     inkscape:current-layer="svg2">
    <sodipodi:guide
       orientation="horizontal"
       position="129.875"
       id="guide2789" />
    <sodipodi:guide
       orientation="horizontal"
       position="222.0625"
       id="guide2791" />
    <sodipodi:guide
       orientation="horizontal"
       position="302.625"
       id="guide2793" />
    <sodipodi:guide
       orientation="horizontal"
       position="261.625"
       id="guide2795" />
    <sodipodi:guide
       orientation="horizontal"
       position="265.625"
       id="guide2797" />
    <sodipodi:guide
       orientation="horizontal"
       position="306.70757"
       id="guide2799" />
    <sodipodi:guide
       orientation="vertical"
       position="47.729708"
       id="guide2801" />
    <sodipodi:guide
       orientation="vertical"
       position="137.17578"
       id="guide2803" />
    <sodipodi:guide
       orientation="vertical"
       position="228.5"
       id="guide2805" />
    <sodipodi:guide
       orientation="vertical"
       position="308"
       id="guide2807" />
    <sodipodi:guide
       orientation="horizontal"
       position="157.68481"
       id="guide3696" />
    <sodipodi:guide
       orientation="horizontal"
       position="320.23047"
       id="guide3714" />
  </sodipodi:namedview>
  <g
     id="g3723"
     transform="translate(1.999985,-0.265165)">
    <path
       sodipodi:nodetypes="cczzzc"
       id="rect1873"
       d="M 11.000001,11.53033 L 345.00003,11.53033 C 345.00003,11.53033 345.00003,118.51926 345.00003,219 C 345.00003,319.48074 265.5581,389 178.00002,389 C 91.148957,389 11.000001,319.39232 11.000001,219 C 11.000001,118.60768 11.000001,11.53033 11.000001,11.53033 z "
       style="fill:white;fill-opacity:1;fill-rule:nonzero;stroke:black;stroke-width:6.25;stroke-linecap:butt;stroke-linejoin:round;stroke-miterlimit:4;stroke-dashoffset:0;stroke-opacity:1" />
    <g
       id="g3716">
      <rect
         style="opacity:1;fill:black;fill-opacity:1;fill-rule:nonzero;stroke:none;stroke-width:0.125;stroke-linecap:butt;stroke-linejoin:miter;stroke-miterlimit:4;stroke-dasharray:none;stroke-dashoffset:0;stroke-opacity:1"
         id="rect2785"
         width="105.17693"
         height="26.920849"
         x="40.25"
         y="274.03125" />
      <rect
         y="274.03125"
         x="226.10156"
         height="26.920849"
         width="87.012871"
         id="rect2787"
         style="opacity:1;fill:black;fill-opacity:1;fill-rule:nonzero;stroke:none;stroke-width:0.125;stroke-linecap:butt;stroke-linejoin:miter;stroke-miterlimit:4;stroke-dasharray:none;stroke-dashoffset:0;stroke-opacity:1" />
      <path
         style="fill:black;fill-opacity:1;fill-rule:evenodd;stroke:none;stroke-width:1px;stroke-linecap:butt;stroke-linejoin:miter;stroke-opacity:1"
         d="M 47.729708,270.125 L 47.729708,97.375 L 159.5,97.375 L 159.5,134.375 L 140.5,153.375 L 140.5,177.9375 L 228.5,177.9375 L 228.5,138.375 L 308,138.375 L 308,270.125 L 228.5,270.125 C 228.5,270.125 228.5,279.79185 228.5,253.80567 C 228.5,242.31519 214.15735,213.67736 184.5,213.67736 C 155.19365,213.67736 140.5,242.31519 140.5,253.80567 C 140.5,259.99285 140.5,270.125 140.5,270.125 L 47.729708,270.125 z "
         id="path2809"
         sodipodi:nodetypes="cccccccccccszscc" />
      <path
         style="fill:black;fill-opacity:1;fill-rule:evenodd;stroke:none;stroke-width:1px;stroke-linecap:butt;stroke-linejoin:miter;stroke-opacity:1"
         d="M 268.17023,73.67022 L 314.30897,134.375 L 222.03152,134.375 L 268.17023,73.67022 z "
         id="path3698"
         sodipodi:nodetypes="cccc" />
      <path
         id="path3700"
         style="fill:black;fill-opacity:1;fill-rule:nonzero;stroke:none;stroke-width:1px;stroke-linecap:butt;stroke-linejoin:miter;stroke-opacity:1"
         d="M 40.128302,93.29243 L 93.791136,22.688155 L 137.17578,79.76953 L 148.1517,42.487145 L 163.10045,93.29243"
         sodipodi:nodetypes="ccccc" />
    </g>
  </g>
</svg>

<?xml version="1.0" encoding="UTF-8"?>
<svg version="1.0" viewBox="0 0 360 400" xmlns="http://www.w3.org/2000/svg" xmlns:cc="http://web.resource.org/cc/" xmlns:dc="http://purl.org/dc/elements/1.1/" xmlns:rdf="http://www.w3.org/1999/02/22-rdf-syntax-ns#">
<metadata>
<rdf:RDF>
<cc:Work rdf:about="">
<dc:format>image/svg+xml</dc:format>
<dc:type rdf:resource="http://purl.org/dc/dcmitype/StillImage"/>
</cc:Work>
</rdf:RDF>
</metadata>
<g transform="translate(2 -.26516)">
<path d="m11 11.53h334v207.47c0 100.48-79.442 170-167 170-86.851 0-167-69.608-167-170v-207.47z" fill="#fff" stroke="#000" stroke-linejoin="round" stroke-width="6.25"/>
<g>
<rect x="40.25" y="274.03" width="105.18" height="26.921"/>
<rect x="226.1" y="274.03" width="87.013" height="26.921"/>
<path d="m47.73 270.12v-172.75h111.77v37l-19 19v24.562h88v-39.562h79.5v131.75h-79.5v-16.319c0-11.49-14.343-40.128-44-40.128-29.306 0-44 28.638-44 40.128v16.319h-92.77z" fill-rule="evenodd"/>
<path d="m268.17 73.67 46.139 60.705h-92.277l46.139-60.705z" fill-rule="evenodd"/>
<path d="m40.128 93.292 53.663-70.604 43.385 57.081 10.976-37.282 14.949 50.805"/>
</g>
</g>
</svg>
